assets/images/cloud.svg

<svg height="30" viewBox="0 0 30 30" width="30" xmlns="http://www.w3.org/2000/svg"><g fill="none" fill-rule="evenodd"><path d="m0 0h30v30h-30z"/><path d="m15 2.14285714c5.2718182 0 9.5454545 4.27365 9.5454545 9.54545456 0 .1547864-.0036818.3087136-.010909.4616864 3.183409 1.1201318 5.4654545 4.1536772 5.4654545 7.7201318 0 4.5186818-3.6631364 8.1818182-8.1818182 8.1818182h-13.63636362c-4.51869545 0-8.18181818-3.6631364-8.18181818-8.1818182 0-3.5664546 2.28199091-6.6 5.46550909-7.7201318-.00728182-.1529728-.01096364-.3069-.01096364-.4616864 0-5.27180456 4.27365-9.54545456 9.54545455-9.54545456zm0 2.72727273c-3.7655727 0-6.81818182 3.05260909-6.81818182 6.81818183 0 .1110954.00263182.2217682.00788182.3319636l.0966 2.0283546-1.91562273.6740454c-2.16467727.7615909-3.64340454 2.8141364-3.64340454 5.1474546 0 3.0124091 2.44208182 5.4545454 5.45454545 5.4545454h13.63636362c3.0124091 0 5.4545455-2.4421363 5.4545455-5.4545454 0-3.0136364-2.4409091-5.4545455-5.4545455-5.4545455-2.4095454 0-4.4540454 1.5623182-5.1760909 3.7291364-.181885.4711644-.8562244.9968961-1.7220667.5900324-.8658424-.4068637-1.0097995-.8761629-.8658424-1.4526688 1.0828637-3.2503636 4.1503637-5.5937727 7.764-5.5937727 0-3.76557274-3.0526363-6.81818183-6.8181818-6.81818183z" fill="#000" fill-rule="nonzero"/></g></svg>

<?xml version="1.0" encoding="UTF-8"?>
<svg width="30px" height="30px" viewBox="0 0 30 30" version="1.1" xmlns="http://www.w3.org/2000/svg" xmlns:xlink="http://www.w3.org/1999/xlink">
    <title>云icon</title>
    <g id="页面-1" stroke="none" stroke-width="1" fill="none" fill-rule="evenodd">
        <g id="h5所需要icon" transform="translate(-233.000000, -93.000000)">
            <g id="编组" transform="translate(233.000000, 93.000000)">
                <rect id="矩形" x="0" y="0" width="30" height="30"></rect>
                <path d="M15,2.14285714 C20.2718182,2.14285714 24.5454545,6.41650714 24.5454545,11.6883117 C24.5454545,11.8430981 24.5417727,11.9970253 24.5345455,12.1499981 C27.7179545,13.2701299 30,16.3036753 30,19.8701299 C30,24.3888117 26.3368636,28.0519481 21.8181818,28.0519481 L8.18181818,28.0519481 C3.66312273,28.0519481 0,24.3888117 0,19.8701299 C0,16.3036753 2.28199091,13.2701299 5.46550909,12.1499981 C5.45822727,11.9970253 5.45454545,11.8430981 5.45454545,11.6883117 C5.45454545,6.41650714 9.72819545,2.14285714 15,2.14285714 Z M15,4.87012987 C11.2344273,4.87012987 8.18181818,7.92273896 8.18181818,11.6883117 C8.18181818,11.7994071 8.18445,11.9100799 8.1897,12.0202753 L8.2863,14.0486299 L6.37067727,14.7226753 C4.206,15.4842662 2.72727273,17.5368117 2.72727273,19.8701299 C2.72727273,22.882539 5.16935455,25.3246753 8.18181818,25.3246753 L21.8181818,25.3246753 C24.8305909,25.3246753 27.2727273,22.882539 27.2727273,19.8701299 C27.2727273,16.8564935 24.8318182,14.4155844 21.8181818,14.4155844 C19.4086364,14.4155844 17.3641364,15.9779026 16.6420909,18.1447208 C16.4602059,18.6158852 15.7858665,19.1416169 14.9200242,18.7347532 C14.0541818,18.3278895 13.9102247,17.8585903 14.0541818,17.2820844 C15.1370455,14.0317208 18.2045455,11.6883117 21.8181818,11.6883117 C21.8181818,7.92273896 18.7655455,4.87012987 15,4.87012987 Z" id="形状" fill="#000000" fill-rule="nonzero"></path>
            </g>
        </g>
    </g>
</svg>
